X:2
T:Camp Meeting on the Fourth of July
R:March
Z:Paul Gitlitz
M:C
L:1/8
K:D
DE|:"D"F2FF FEDF|AFBF AFDE|F2DF ABAF|"A"EDEF E2DE|
"D"F2FF FEDF|AFBF AFDE |F2DF ABAF|1"A"EDEF "D"D2 DE:|2"A"EDEF "D"D2 (3ABc|]
|:"D"d2de "(Bm)"dcBA |"G"BABc "A"BAFA |"D"d3e "(Bm)"dcBA|"G"BABc "A"B2fe|
"D"d3e "(Bm)"dcBA|"G"B2Bd "A"BAFA|AFBF AFEF|1"D"D4- D2(3ABc:|2"D"D6|]

